X:1
T:Tu m'uccidi cor mio
T:Luca Marenzio
T:Source : Il quinto libro delle Villanelle a tre voci---Venetia---Herede di G.Scotto---1587. Editor : André Vierendeels (06/06/17).
T:Notes Original clefs : G2, C1, F3 Editorial accidentals above the staff Music collected by Attilio Gualtieri  
T:Tu m'uccidi cor mio
T:©
T:©
C:Luca Marenzio
Z:©
%%score [ 1 2 3 ]
L:1/8
Q:1/4=120
M:4/4
K:C
V:1 treble nm="Soprano 1" snm="S 1"
V:2 treble nm="Soprano 2" snm="S 2"
V:3 treble-8 nm="Tenor" snm="T"
V:1
"^1)" z4 e2 f2 | g8- | g4 f2 e2 | d8 | c2 e3 d e2 | d2 c2 B2 G2 | ABcA BcdB | ^c2 d4 c2 | d8 :: %9
w: Tu m'uc-|ci-|* di cor|mi-|o, quan- do mi|di- ci non che|non _ _ _ _ _ _ _|vo- gl'i- *|o.|
w: Tu mi|pri-|* vi di|vi-|ta, ne- gan- do|dar- mi con ge-|gl'oc- * * * * * * *|chi'a- i- *|ta,|
 z4 g4- | g4 d3 d | d2 c2 B4 | B4 z4 | e2 ef g2 e2 | d6 c2 | e6 c2 | B8 | A8 :| %18
w: ahi|_ dis- pie-|ta- e fe-|ra,|ter non vo- ler dir|si tu|voi ch'io|pe-|ra.|
w: hai|_ cru- da'e|dis- le- a-|le,|per un sol guar- do|voi tu|tan- to|ma-|le.|
V:2
"^2)""^1)" c2 d2 e4- | e4 d2 c2 | B4 c4- | c2 BA B4 | c2 G3 G G2 | B2 A2 G4 | C4 G4- | G2 F2 E4 | %8
w: Tu m'uc- ci-|* di cor|mi- *||o, quan- do mi|di- ci non|che non|_ vo- gl'i-|
w: Tu sei co-|* stan- t'e|for- *||te, in at- ti'et|in pa- ro-|le'a dar-|* mi mor-|
 D8 :: z4 e4- | e4 B3 B | B2 A2 ^G4 | ^G4 c2 cB |"^-natural" G2 A2 B4- | B2 A2 GFE^F | ^G4 A4- | %16
w: o|ahi|_ dis- pie-|ta- te fe-|ra, per non vo-|ler dir si|_ tu voi _ _ _|_ ch'io|
w: te,|ahi|_ che fa-|rai cru- de-|le, un a- man-|te per- den-|* do si _ _ _|_ fe|
 A4 ^G4 | A8 :| %18
w: _ pe-|ra.|
w: _ de-|le.|
V:3
"^3)""^1)""^4)" A2 B2 c4- | c4 B2 A2 | G8- | G8 | C2 c3 B c2 | G2 A2 E2 E2 | F4 G4 | A8 | D8 :: %9
w: Tu m'uc- ci|_ di cor|mi-||o, quan- do mi|di- ci non che|non vo-|gl'i-|o|
w: Can- gia, can-|* gia cor|mi-||o, quest' os- ti-|na- ta tua vo-|glia'e de-|si-|o,|
"^-natural" z4 C4- | C4 G3 G | G2 A2 E4 | E4 A2 AB | c2 A2 G4- | G2 ^F2 G2 A2 | E8- | E8 | A,8 :| %18
w: ahi|_ dis- pie-|ta- te fe-|ra, per non vo-|ler dir si|_ tu voi ch'io|pe-||ra.|
w: che|_ dol- c'è|l'a- mar quan-|do, es- ser si|po- te ri'a-|* ma- to a-|man-||do|

